icon-svg/go-group-off.svg

<svg xmlns="http://www.w3.org/2000/svg" fill="#44739e" viewBox="0 0 24 24"><path d="m10.5 7.9 5.6 5.6c-1.6-2-3.6-4-5.6-5.6m11.5 13L2.9 1.9 1.5 3.2 4 5.8c-1.8 1.8-3 4.6-3 7.3 0 3.1 1.4 5.8 3.6 7.7h-.2c-.6 0-1.1.5-1.1 1.1S3.8 23 4.4 23h6.5c2.7 0 5.5-1.2 7.3-3l2.4 2.4zm-6.8-3.1c-2.9-2-6.9-6-8.9-8.9-.6-.8-1-1.5-1.1-2l12 12c-.5-.2-1.2-.5-2-1.1m7.1-8.5c-1.6-2.6-5-6.1-7.7-7.7-1.2-.8-2.1-1-2.5-.8-1.4 1.2-2.5 3-2.8 4.9 3.1 2.1 6.7 5.7 8.8 8.8 1.9-.3 3.8-1.4 4.9-2.8.3-.2.1-1.1-.7-2.4m-2.1 1.4C18 9.1 14.9 6 13.3 3.8c-1.6-2.3-1.1-2.9 1.1-1.3 2.3 1.6 5.5 4.8 7.1 7.1 1.6 2.2 1 2.7-1.3 1.1"/></svg>

<?xml version="1.0" encoding="UTF-8"?>
<svg width="24px" fill="#44739e" height="24px" viewBox="0 0 24 24" version="1.1" xmlns="http://www.w3.org/2000/svg" xmlns:xlink="http://www.w3.org/1999/xlink">
            <path d="M10.5,7.9l5.6,5.6C14.5,11.5,12.5,9.5,10.5,7.9z M22,20.9L2.9,1.9L1.5,3.2L4,5.8c-1.8,1.8-3,4.6-3,7.3c0,3.1,1.4,5.8,3.6,7.7H4.4c-0.6,0-1.1,0.5-1.1,1.1 S3.8,23,4.4,23h5.9c0.1,0,0.1,0,0.2,0c0.1,0,0.3,0,0.4,0c2.7,0,5.5-1.2,7.3-3l2.4,2.4L22,20.9z M15.2,17.8c-2.9-2-6.9-6-8.9-8.9 c-0.6-0.8-1-1.5-1.1-2l12,12C16.7,18.7,16,18.4,15.2,17.8z M22.3,9.3c-1.6-2.6-5-6.1-7.7-7.7c-1.2-0.8-2.1-1-2.5-0.8c-1.4,1.2-2.5,3-2.8,4.9c3.1,2.1,6.7,5.7,8.8,8.8 c1.9-0.3,3.8-1.4,4.9-2.8C23.3,11.5,23.1,10.6,22.3,9.3z M20.2,10.7c-2.2-1.6-5.3-4.7-6.9-6.9c-1.6-2.3-1.1-2.9,1.1-1.3 c2.3,1.6,5.5,4.8,7.1,7.1C23.1,11.8,22.5,12.3,20.2,10.7z"/>

</svg>
